!!!!SEGMENT: pl-wtm--r-2628_troschel-wilhelm--valse.krn
!!!cenid: 18xx:2274
!!!COM: Troschel, Wilhelm
!!!COM-rismid: pe30024099
!!!CDT: 1823/08/23-1887/03/02
!!!CNT: Polish
!!!OTL: Valse
!!!PDT:
!!!AGN: Secular; Waltz
!!!SMS-siglum: PL-Wtm
!!!SMS-shelfmark: R 2628
!!!SMS-shelfwork: W
!!!SMS-variant:
!!!SMS-altvar:
!!!NIFC-rismid: 1001114150
!!!URL-scan: http://repozytorium.nifc.pl/skany/pl-wtm-nut--r2628
!!!ONB-nifc:
!!!OMD: Moderato
**kern	**kern	**dynam
*part1	*part1	*part1
*staff2	*staff1	*
*I"Fortepian	*I"Fortepian	*
*>[A,B,B,C,C1,C,C2,D,E]	*>[A,B,B,C,C1,C,C2,D,E]	*>[A,B,B,C,C1,C,C2,D,E]
*>A	*>A	*>A
*clefF4	*clefG2	*
*k[b-e-a-d-g-]	*k[b-e-a-d-g-]	*
*D-:	*D-:	*
*M12/8	*M12/8	*
*all\right	*all\right	*
=1	=1	=1
*	*^	*
!	!LO:TX:a:t=Introduzione	!	!
.	8qe-/	.	.
8FL 8D-\	(>8d-L 8A-/	4.ryy	.
8G- 8E-\	8c 8G--/	.	.
8FJ 8D-\	8d-J 8A-/	.	.
4.G- 4.C\	8e-/L	4.An\	.
.	8f/	.	.
.	8e-/J	.	.
4F 4D-\	8d-/L	4A-X\	.
.	8cc/	.	.
8F-X 8GGn/	8b-/J)	8d-\	.
4.E-X 4.AA-/	4.a-/	4.c\	.
=2	=2	=2	=2
*^	*	*	*
.	.	8qcc-X/	.	.
4.G- 4.GG-/	2.ryy	(8b--/L	4.d-\	.
.	.	8a-/	.	.
.	.	8b--/J	.	.
.	.	8qf-X/	.	.
4.G- 4.C-X\	.	8e-/L	4.B--\	.
.	.	8d-/	.	.
.	.	8e-/J	.	.
8Fn/L	4AA-\	8a-/L	8d-\L	.
!	!	!LO:N:acc=n-	!	!
8Gn 8En/	.	8b-X/	8d-\J	.
8G/J	8BB-\	8e-/J	8d-\	.
4.A-/	4.AA-\	4.a-/)	4.cn\	.
*clefG2	*	*	*	*
*v	*v	*	*	*
=3	=3	=3	=3
*	*8va	*	*
.	8qeee-/	.	.
!	!	!	!LO:DY:rj
8ffL 8dd-\	8ddd-L 8aa-/	4.ryy	pp
8gg- 8ee-\	(>8ccc 8bb--/	.	.
8ffJ 8dd-\	8ddd-J 8aa-X/	.	.
4.gg- 4.cc\	8eee-/L	4.aan\	.
.	8fff/	.	.
.	8eee-/J	.	.
4ff 4dd-\	8ddd-/L	4aa-X\	.
.	8cccc/	.	.
8een 8gn/	8bbb-/J)	8ddd-\	.
4.ee-X 4.a-/	4.aaa-/	4.ccc\	.
=4	=4	=4	=4
*^	*	*	*
.	.	8qcccc-X/	.	.
4.gg- 4.g-/	2.ryy	(>8bbb--/L	4.ddd-\	.
.	.	8aaa-/	.	.
.	.	8bbb--/J	.	.
.	.	8qfff-X/	.	.
4.gg- 4.cc-X\	.	8eee-/L	4.bb--\	.
.	.	8ddd-/	.	.
.	.	8eee-/J	.	.
8ffn/L	4a-\	8aaa-/L	8ddd-\L	.
!	!	!LO:N:acc=n-	!	!
8ggn 8een/	.	8bbb-X/	8ddd-\	.
8gg/J	8b-\	8eee-/J)	8ddd-\J	.
!	!	!LO:TX:a:t=loco	!	!
4.aa- 4.a-\	4.ryy	4.aaa-/	4.cccn\	.
*clefF4	*	*X8va	*	*
*v	*v	*	*	*
*	*v	*v	*
!!LO:LB:g=original
=5	=5	=5
!	!	!LO:DY:rj
8A-L 8G- 8E- 8AA-\	8a-L 8g- 8c'/	f
8A- 8G- 8E- 8AA-\	8b- 8g- 8c'/	.
8A-J 8G- 8E- 8AA-\	8ccJ 8g- 8c'/	.
8A-L 8D-\	8dd-L 8f 8d-'/	.
8A- 8D-\	8f 8d-'/	.
8GnJ 8D-\	8b-J 8en'/	.
8A-L 8E- 8AA-\	8a-L 8e-X 8c'/	.
8A- 8E- 8AA-\	8cc 8e- 8c'/	.
8A-J 8E- 8AA-\	8b-J 8e- 8c'/	.
4.A- 4.E- 4.AA-\	4.a- 4.e- 4.c/	.
*clefG2	*	*
=6	=6	=6
*	*8va	*
!	!	!LO:DY:rj
8gg-\L	8bbb--L 8eee- 8ddd-'\	pp
8gg-\	16bbb--L 16eee- 16ddd-'\	.
.	16bbb--J 16eee- 16ddd-'\	.
8gg-\J	8bbb--J 8eee- 8ddd-'\	.
8gg-\L	8bbb--L 8eee- 8ddd-'\	.
8ee-\	8cccc-X 8eee- 8ddd-'\	.
8gg-\J	8bbb--J 8eee- 8ddd-'\	.
8aa-\L	8aaa-L 8eee- 8cccn'\	.
8ee-\	8ccccn 8eee-'\	.
!	!LO:N:n=1:acc=n-	!
8ggn\J	8bbb-XJ 8eee- 8ddd-'\	.
4.aa-\	4.aaa- 4.eee- 4.ccc/	.
*clefF4	*X8va	*
=7	=7	=7
!	!LO:TX:a:t=loco	!LO:DY:rj
8G-L 8GG-/	8bb--L 8ee- 8dd- 8b--\	ff
16G-L 16GG-/	16bb--L 16ee- 16dd- 16b--\	.
16G-J 16GG-/	16bb--J 16ee- 16dd- 16b--\	.
8G-J 8GG-/	8bb--J 8ee- 8dd- 8b--\	.
8G-L 8GG-/	8bb--L 8ee- 8dd- 8b--\	.
8E- 8EE-/	8ccc-X 8ee- 8dd- 8cc-X\	.
8G-J 8GG-/	8bb--J 8ee- 8dd- 8b--\	.
8A-L 8AA-\	8aa-L 8ee- 8ccn 8a-\	<
8Gn 8GGn\	8ggn 8gn\	.
8A-J 8AA-\	8aa-J 8a-\	.
8AA-L 8AAA-^^</	8cccnL 8gg-X 8ee- 8ccn^^\	.
8Gn 8GGn/	8ggn 8gn\	.
8A-J 8AA-/	8aa-J 8a-\	[[
=8	=8	=8
8AA-L 8AAA-^^</	8ddd-L 8aa- 8ff 8dd-^^\	.
8Gn 8GGn/	8ggn 8gn\	.
8A-J 8AA-/	8aa-J 8a-\	.
8AA-L 8AAA-^^</	8dddnL 8aa- 8ff 8ddn^^\	.
8G 8GG/	8gg 8g\	.
8A-J 8AA-/	8aa-J 8a-\	.
4.AA- 4.AAA-;</	4.eee-: 4.aa-: 4.gg-X: 4.cc;:\	.
4r	4r	.
8r	8r	.
!!LO:LB:g=original
=9|!	=9|!	=9|!
*M3/4	*M3/4	*
!	!LO:TX:a:t=Valse	!LO:DY:rj:t=p.
4DD-/	4a- 4f/	p
.	4qqcc 4qqa-/	.
4d- 4A- 4F\	4b- 4g-/	.
4d- 4A- 4F\	4a- 4f/	.
=10	=10	=10
4GG- 4GGG-/	4b-- 4g-/	.
4G- 4D-/	8g-L 8B--/	.
.	8a-J 8d-/	.
4B-- 4G- 4D-/	4b-- 4g-/	.
=11	=11	=11
4AA- 4AAA-/	4a- 4f/	.
4c 4A- 4G- 4E-\	4ff 4a-/	.
4c 4A- 4G- 4E-\	4ee- 4g-/	.
=12	=12	=12
4D- 4DD-/	4ee- 4g-/	.
!LO:N:xstem	!	!
4d- 4A- 4F\	8dd-L 8f/	.
.	8ccJ 8en/	.
4d- 4A- 4F\	4dd- 4f/	.
=13	=13	=13
4d- 4D-\	4aa- 4cc-X\	.
4f 4d- 4c-X 4A-\	4bb- 4dd-\	.
4f 4d- 4c- 4A-\	4aa- 4cc-\	.
=14	=14	=14
4GG-/	4aa- 4cc-X\	.
4d- 4B- 4G-\	8gg-L 8b-/	.
.	8dd-J 8a-/	.
4d- 4B- 4G-\	4b- 4g-/	.
=15	=15	=15
4AA- 4AAA-/	4a- 4f/	.
4c 4A- 4G- 4E-\	4ff 4a-/	.
4c 4A- 4G- 4E-\	4ee- 4g-/	.
=16	=16	=16
4D- 4DD-/	4ee- 4g-/	.
4d- 4A- 4F\	8dd-L 8f/	.
.	8a-J 8e-/	.
4A- 4D-\	4f 4d-/	.
!!LO:LB:g=original
=17	=17	=17
4DD-/	4a- 4f/	.
.	4qqcc 4qqa-/	.
4d- 4A- 4F\	4b- 4g-/	.
4d- 4A- 4F\	4a- 4f/	.
=18	=18	=18
4GG- 4GGG-/	4b-- 4g-/	.
4G- 4D-/	8g-L 8B--/	.
.	8a-J 8d-/	.
4B-- 4G- 4D-/	4b-- 4g-/	.
=19	=19	=19
4AA- 4AAA-/	4a- 4f/	.
4c 4A- 4G- 4E-\	4ff 4a-/	.
4c 4A- 4G- 4E-\	4ee- 4g-'/	.
=20	=20	=20
4D- 4DD-/	4ee- 4g-/	.
4d- 4A- 4F\	8dd-L 8f/	.
.	8ccJ 8en/	.
4d- 4A- 4F\	4dd- 4f/	.
=21	=21	=21
4Dn 4DDn/	4aa- 4cc-X\	.
4f 4dn 4Bn 4A-\	4gg- 4b-/	.
4f 4d 4B 4A-\	4ff 4a-/	.
=22	=22	=22
4E- 4EE-/	4ee- 4cc\	.
*clefG2	*	*
.	8qqddd-/	.
4a- 4e- 4c/	8cccL 8ee-\	.
.	8bbnJ 8ddn\	.
4a- 4e- 4c/	4ccc 4ee-\	.
*clefF4	*	*
=23	=23	=23
4E- 4EE-/	4dd- 4b-\	.
*clefG2	*	*
.	8qqccc/	.
4gn 4e- 4d- 4B-/	8bb-L 8dd-\	.
.	8aanJ 8cc\	.
4g 4e- 4d- 4B-/	4bb- 4dd-\	.
*clefF4	*	*
=24	=24	=24
4AA- 4AAA-/	4cc 4a-/	.
*clefG2	*	*
4a- 4e- 4c/	8aa-L 8cc/	.
.	8ggnJ 8b-/	.
4a- 4e- 4c/	4aa- 4cc/	.
!!LO:LB:g=original
=25:|!	=25:|!	=25:|!
*clefF4	*	*
4AA- 4AAA-/	4aa- 4cc\	.
.	8qqbb-/	.
4g- 4e- 4c 4A-\	8aa-L 8cc\	.
.	8ggnJ 8bn\	.
4g- 4e- 4c 4A-\	4aa- 4cc\	.
=26	=26	=26
4D- 4DD-/	4ddd- 4ff\	.
.	8qqeee-/	.
4f 4d- 4A-\	8ddd-L 8ff\	.
.	8cccJ 8een\	.
4f 4d- 4A-\	4ddd- 4ff\	.
=27	=27	=27
4AA- 4AAA-/	8bb-L 8gg-\	.
.	8cc\	.
4g- 4e- 4c 4A-\	8ee-\	.
.	8bb-J 8gg-\	.
4g- 4e- 4c 4A-\	4aa-\	.
=28	=28	=28
4D- 4DD-/	8bb-L 8ff\	.
!	!LO:TX:t=P:problem:skreślona nuta	!
.	8dd-\	.
4f 4d- 4A-\	8ff\	.
.	8bb-J 8gg-\	.
4f 4d- 4A-\	4aa- 4ff\	.
=29	=29	=29
4AA- 4AAA-/	4aa- 4cc\	.
.	8qqbb-/	.
4g- 4e- 4c 4A-\	8aa-L 8cc\	.
.	8ggnJ 8bn\	.
4g- 4e- 4c 4A-\	4aa- 4cc\	.
=30	=30	=30
4D- 4DD-/	4ddd- 4ff\	.
.	8qqeee-/	.
4f 4d- 4A-\	8ddd-L 8ff\	.
.	8cccJ 8een\	.
4f 4d- 4A-\	4ddd- 4ff\	.
=31	=31	=31
4E- 4EE-/	8fffL 8ddd-\	.
.	8ggn\	.
4gn 4e- 4d- 4B-\	8bb-\	.
.	8fffJ 8ddd-\	.
4g 4e- 4d- 4B-\	4eee-\	.
=32	=32	=32
4AA-/	8fffL 8ccc\	.
.	8aa-\	.
4a- 4e- 4c\	8ccc\	.
.	8fffJ 8ddd-\	.
4a- 4e- 4c\	4eee- 4ccc\	.
!!LO:PB:g=original
=33	=33	=33
4AA- 4AAA-/	4aa- 4cc\	.
.	8qqbb-/	.
4g- 4e- 4c 4A-\	8aa-L 8cc\	.
.	8ggnJ 8bn\	.
4g- 4e- 4c 4A-\	4aa- 4cc\	.
=34	=34	=34
4D- 4DD-/	4ddd- 4ff\	.
.	8qqeee-/	.
4f 4d- 4A-\	8ddd-L 8ff\	.
.	8cccJ 8een\	.
4f 4d- 4A-\	4ddd- 4ff\	.
=35	=35	=35
4AA- 4AAA-/	8bb-L 8gg-\	.
.	8cc\	.
4g- 4e- 4c 4A-\	8ee-\	.
.	8bb-J 8gg-\	.
4g- 4e- 4c 4A-\	4aa-\	.
=36	=36	=36
4D- 4DD-/	8bb-L 8ff\	.
.	8dd-\	.
4f 4d- 4A-\	8ff\	.
.	8bb-J 8gg-\	.
4f 4d- 4A-\	4aa- 4ff\	.
=37	=37	=37
4BB-- 4BBB--/	4ddd- 4ff-X\	.
.	8qqeee-/	.
4a-- 4f-X 4d- 4B--\	8ddd-L 8ff-\	.
.	8cccJ 8ee-\	.
4a-- 4f- 4d- 4B--\	4ddd- 4ff-\	.
=38	=38	=38
4AA- 4AAA-/	4fff 4aa-\	.
.	8qqeee-/	.
4a- 4f 4d- 4A-\	8fffL 8aa-\	.
.	8eeenJ 8ggn\	.
4a- 4f 4d- 4A-\	4fff 4aa-\	.
=39	=39	=39
*	*8va	*
4AA- 4AAA-/	8bbb-L 8ggg-\	.
.	8ccc\	.
4g- 4e- 4c 4A-\	8eee-\	.
.	8bbb-J 8ggg-\	.
4g- 4e- 4c 4A-\	4aaa-\	.
*	*X8va	*
=40	=40	=40
!	!LO:TX:a:t=loco	!
4f 4d-\	8ddd- 8ff 8dd-\	.
.	8ryy	.
4DD-/	4r	.
4r	4r	.
*kcancel	*kcancel	*
!!LO:LB:g=original
=41!|:	=41!|:	=41!|:
*>B	*>B	*>B
*k[b-e-a-d-]	*k[b-e-a-d-]	*
8AA-\L	8cccL 8aa-\	.
8E-\	8cc\	.
8A-\	8ee-\	.
8c\	8ccc 8aa-\	.
8Bn\	8ddn\	.
8c\J	8ee-\J	.
=42	=42	=42
8AA-\L	8ddd-L 8aa-\	.
8F\	8dd-\	.
8A-\	8ff\	.
8d-\	8ddd- 8aa-\	.
8c\	8een\	.
8d-\J	8ff\J	.
=43	=43	=43
8E-L 8AA-\	8fffL 8bb-\	.
8G\	8gg\	.
8d-\	8ee-\	.
8E- 8AA-\	8eee- 8bb-\	.
8G\	8gg\	.
8d-\J	8ee-\J	.
=44	=44	=44
8E-L 8AA-\	8fffL 8ccc\	.
8A-\	8aa-\	.
8c\	8ee-\	.
8E- 8AA-\	8eee- 8ccc\	.
8A-\	8aa-\	.
8c\J	8ee-\J	.
=45	=45	=45
8AA-\L	8cccL 8aa-\	.
8E-\	8cc\	.
8A-\	8ee-\	.
8c\	8ccc 8aa-\	.
8Bn\	8ddn\	.
8c\J	8ee-\J	.
=46	=46	=46
8AA-\L	8ddd-L 8aa-\	.
8F\	8dd-\	.
8A-\	8ff\	.
8d-\	8ddd- 8aa-\	.
8c\	8een\	.
8d-\J	8ff\J	.
=47	=47	=47
8EnL 8C\	8ddd-L 8bb-\	.
8B-\	8gg\	.
8c\	8een\	.
8E 8C\	8ccc 8bb-\	.
8B-\	8gg\	.
8c\J	8ee\J	.
!!LO:LB:g=original
=48	=48	=48
8A-L 8F\	8ddd-L 8aa-\	.
8c\	8ff\	.
8f\	8cc\	.
8A- 8F\	8ccc 8aa-\	.
8c\	8ff\	.
8f\J	8cc\J	.
=49	=49	=49
8AA-\L	8cccL 8aa-\	.
8E-\	8cc\	.
8A-\	8ee-\	.
8c\	8ccc 8aa-\	.
8Bn\	8ddn\	.
8c\J	8ee-\J	.
=50	=50	=50
8AA-\L	8ddd-L 8aa-\	.
8F\	8dd-\	.
8A-\	8ff\	.
8d-\	8ddd- 8aa-\	.
8c\	8een\	.
8d-\J	8ff\J	.
=51	=51	=51
8E-L 8AA-\	8fffL 8bb-\	.
8G\	8gg\	.
8d-\	8ee-\	.
8E- 8AA-\	8eee- 8bb-\	.
8G\	8gg\	.
8d-\J	8ee-\J	.
=52	=52	=52
8E-L 8AA-\	8fffL 8ccc\	.
8A-\	8aa-\	.
8c\	8ee-\	.
8E- 8AA-\	8eee- 8ccc\	.
8A-\	8aa-\	.
8c\J	8ee-\J	.
=53	=53	=53
8A-L 8F-X\	8ccc-L 8aa-\	.
8c-X\	8ee--\	.
8e--\	8cc-X\	.
8A- 8F-\	8ccc- 8aa-\	.
8c-\	8ee--\	.
8e--\J	8cc-\J	.
=54	=54	=54
8A-L 8E-\	8cccnL 8aa-\	.
8c\	8ee-\	.
8e-\	8cc\	.
8A- 8E-\	8eee- 8ccc\	.
8c\	8aa-\	.
8e-\J	8ee-\J	.
!!LO:LB:g=original
=55	=55	=55
8A-L 8E-\	8fffL 8bbn\	.
8Bn\	8aa-\	.
8dn\	8ff\	.
8B-X 8E-\	8ggg 8eee-\	.
8d-X\	8bb\	.
8e-\J	8gg\J	.
=56	=56	=56
4e- 4A-\	4aaa- 4ccc 4aa-\	.
4AA-/	4r	.
4r	4r	.
=57|!|:	=57|!|:	=57|!|:
*>C	*>C	*>C
8EE-\L	8fffL 8aa-\	.
8BB-\	8eeen 8gg\	.
8E-\	8eee-X 8gg-X\	.
8G\	8dddn 8ff\	.
8B-\	8ddd-X 8ff-X\	.
8en\J	8ggnJ 8dd-\	.
=58	=58	=58
8AA-\L	8eee-L 8gg\	.
8E-\	8eee-- 8gg-X\	.
8A-\	8ddd- 8ff\	.
8c\	8ccc 8een\	.
8e-\	8ccc-X 8ee-X\	.
8a-\J	8ffJ 8bn\	.
=59	=59	=59
8g\L	8ee-L 8b-\	.
8f\	8gg\	.
8e-\	8gg 8ee- 8b-\	.
8dn\	8bb-\	.
8d-X\	8bb- 8gg 8ee-\	.
8B-\J	8fff\J	.
=60	=60	=60
8c\L	8eee-L 8ccc 8aa-\	.
8B-\	8aaa-\	.
8A-\	8ccc 8aa- 8ee-\	.
8E-\	8fff\	.
8C\	8eee- 8ee-\	.
8AA-\J	8ccc\J	.
=61	=61	=61
8EE-\L	8fffL 8aa-\	.
8BB-\	8eeen 8gg\	.
8E-\	8eee-X 8gg-X\	.
8G\	8dddn 8ff\	.
8B-\	8ddd-X 8ff-X\	.
8en\J	8ggnJ 8dd-\	.
=62	=62	=62
8AA-\L	8eee-L 8gg\	.
8E-\	8eee--X 8gg-X\	.
8A-\	8ddd- 8ff\	.
!	!LO:SIC:v:n=2:s=8ee-\	!
8c\	8ccc 8ee-\	.
8e-\	8ccc-X 8ee-X\	.
8a-\J	8ee-J 8bn\	.
!!LO:LB:g=original
=63	=63	=63
8g\L	8ee-L 8b-\	.
8g-X\	8een 8dd- 8b-\	.
8f\	8ff 8dd- 8b-\	.
8f-X\	8gg 8dd- 8b-\	.
8e-\	8ggn 8dd- 8b-\	.
8gn:J 8d-: 8B-: 8E-:\	8eee-:J 8bb-: 8gg: 8dd-:\	.
*clefG2	*	*
=64	=64	=64
*>C1	*>C1	*>C1
4cc: 4a-: 4e-: 4A-:\	4aaa-: 4eee-: 4ccc: 4ee-:\	.
*clefF4	*	*
4AAA-/	4r	.
4r	4r	.
=65:|!	=65:|!	=65:|!
*>C2	*>C2	*>C2
*	*^	*
!LO:TX:t=P:problem:skreślona nuta	!	!	!LO:DY:rj
4c 4A-\	[2.aa-T/	4a-\	p
4AA- 4AAA-/	.	4r	.
4r	.	4r	.
=66	=66	=66	=66
*>D	*>D	*>D	*
4d- 4A- 4F\	2.aa-/_	4b-\	<
4AA- 4AAA-/	.	4r	.
4r	.	4r	.
=67	=67	=67	=67
4e- 4A- 4G-X\	2.aa-/_	4cc\	.
4AA- 4AAA-/	.	4r	.
4r	.	4r	.
=68	=68	=68	=68
4f 4d- 4A-\	2.aa-/_	4dd-\	.
4AA- 4AAA-/	.	4r	.
4r	.	4r	.
=69	=69	=69	=69
4f 4Bn 4A-\	2.aa-/_	4ddn\	.
4AA- 4AAA-/	.	4r	.
4r	.	4r	.
=70	=70	=70	=70
4g-X 4c 4A-\	2.aa-/]	4ee-\	.
4AA- 4AAA-/	.	4r	[
4r	.	4r	.
.	16qqggn/LL	.	.
.	16qqaa-/JJ	.	.
*	*v	*v	*
!!LO:PB:g=original
=71	=71	=71
*	*2\right	*
4r;	2bbb-;\	.
(32AA-\LLL	.	.
32E-\	.	.
32G-X\	.	.
32A-\	.	.
32c\	.	.
32e-\	.	.
32g-y>\	.	.
32a->\	.	.
32cc>\	8ryy	.
32ee->\	.	.
32gg-y>\	.	.
32aa->\JJJ)	.	.
4ccc>\	4aaa-/	.
32bb->\LLL	(>32ggg-y/LLL	.
32aa->\	32fff/	.
32gg->\	32eee-/	.
32ff>\	32ddd-/	.
32ee->\	32ccc/	.
32dd->\	32bb-/	.
32cc>\	32aa-/	.
32b->\	32gg-y/	.
32a->\	32ff/	.
32g->\	32ee-/	.
32f>\	32dd-/	.
32e->\	32cc/	.
32d->\	32b-/	.
32c>\	32a-/	.
32B-\	32g-y/	.
32A-\	32f/	.
32G-\	32e-/	.
32F\	32d-/	.
32E-\	32c</	.
32D-\JJJ	32B-</JJJ)	.
8C\L	4A-</	.
8AA-\J	.	.
*2\right	*	*
2E- 2D- 2GG\	2B--</	.
4E- 4C 4AA-\	4A-</	.
8c: 8G-: 8E-: 8AA-:'<\	8aa-: 8ee-: 8cc: 8a-:'>/	.
8r;	8r;	.
!!LO:LB:g=original
=72-	=72-	=72-
*>E	*>E	*>E
*k[b-e-a-d-g-c-]	*k[b-e-a-d-g-c-]	*
*^	*	*
!	!	!LO:TX:a:t=Trio	!
4r	2.GG-\	2.b- 2.B-/	.
4G- 4D-/	.	.	.
4G- 4D-/	.	.	.
=73	=73	=73	=73
.	.	8qdd- 8qd-/	.
4r	2.GG-\	4cc- 4c-/	.
4G- 4E-/	.	4b- 4B-/	.
4G- 4E-/	.	4cc- 4c-/	.
*v	*v	*	*
=74	=74	=74
4GG-\	2dd- 2d-/	.
4B- 4G- 4D-\	.	.
4B- 4G- 4D-\	4gg- 4g-/	.
=75	=75	=75
4B- 4G- 4D-\	2.bb- 2.b-/	.
4B- 4G- 4D-\	.	.
4B- 4G- 4D-\	.	.
=76	=76	=76
4GG-\	[2.bb- [>2.b-/	.
4B- 4G- 4D-\	.	.
4B- 4G- 4D-\	.	.
=77	=77	=77
4B- 4G- 4Dn\	4bb-] 4b-\]	.
.	8qqddd- 8qqdd-/	.
4B- 4G- 4D\	4ccc- 4cc-\	.
4B- 4G- 4D\	4bb- 4b-\	.
=78	=78	=78
*^	*^	*
4r	[>2.C-\	2.bb-/	2.b-\	.
4c- 4A- 4E-/	.	.	.	.
4c- 4A- 4E-/	.	.	.	.
*	*	*v	*v	*
=79	=79	=79	=79
4c- 4A- 4E-/	2.C-\]	4aa- 4a-\	.
4c- 4A- 4E-/	.	4aa- 4a-\	.
!LO:N:vis=4	!	!	!
8B-: 8E-: 8GGn:\	.	4bb- 4b-\	.
!LO:N:vis=4	!	!	!
8d- 8Gn 8E- 8BB-\	.	.	.
*v	*v	*	*
=80	=80	=80
4AA-/	2ccc- 2cc-\	.
4c- 4A- 4E-\	.	.
4c- 4A- 4E-\	4bb- 4b-\	.
=81	=81	=81
4C-/	2ccc- 2cc-\	.
4c- 4A- 4E-\	.	.
4c- 4A- 4E-\	4dddn 4ddn\	.
=82	=82	=82
!	!LO:TX:t=P:problem:brak początku ligatury	!
4AA-/	[2.fff [>2.ff\	.
4c- 4A- 4E-\	.	.
4c- 4A- 4E-\	.	.
!!LO:LB:g=original
=83	=83	=83
4C-\	4fff] 4ff\]	.
4c- 4A- 4E-\	4eee- 4ee-\	.
4c- 4A- 4E-\	4dddn 4ddn\	.
=84	=84	=84
4AA-/	4fff 4aa- 4ff\	.
4c- 4A- 4E-\	4.eee- 4.gg- 4.ee-\	.
4c- 4A- 4E-\	.	.
.	8ddd- 8ff 8dd-\	.
=85	=85	=85
4C-\	4ddd- 4ff 4dd-\	.
4c- 4A- 4E-\	4.ccc- 4.ee- 4.cc-\	.
4c- 4A- 4E-\	.	.
.	8bb- 8dd- 8b-\	.
=86	=86	=86
4DD-/	2aa- 2cc- 2a-\	.
4c- 4A- 4F 4D-\	.	.
4c- 4A- 4F 4D-\	4ee- 4cc-/	.
=87	=87	=87
*^	*	*
4r	2.D-\	4ee- 4cc-/	.
4c- 4A- 4F/	.	4dd- 4b-/	.
4c- 4A- 4F/	.	4cc- 4a-/	.
=88	=88	=88	=88
4r	2.GG-\	2.b- 2.B-/	.
4G- 4D- 4BB-/	.	.	.
4G- 4D- 4BB-/	.	.	.
=89	=89	=89	=89
4r	2.AA-\	8dd-L 8d-/	.
.	.	8cc-J 8c-/	.
4F 4D- 4C-/	.	4b- 4B-/	.
4F 4D- 4C-/	.	4cc- 4c-/	.
=90	=90	=90	=90
4r	2.BB-\	2.dd- 2.d-/	.
4G- 4D-/	.	.	.
4G- 4D-/	.	.	.
=91	=91	=91	=91
4r	2.BB-\	2.ddn 2.dn/	.
4A- 4F/	.	.	.
4A- 4F/	.	.	.
=92	=92	=92	=92
4r	2C-\	2ee- 2e-/	.
4G- 4E-/	.	.	.
4ryy	4Gn 4E- 4D- 4BB-\	4ggn 4gn/	.
!!LO:LB:g=original
=93	=93	=93	=93
4r	2AA-\	2aa- 2a-/	.
4A- 4E- 4C-/	.	.	.
4ryy	4B-: 4En: 4D-: 4FFn:\	4bb- 4b-/	.
*v	*v	*	*
=94	=94	=94
4AA-/	2.ddd- 2.dd-\	.
4d- 4Gn 4En\	.	.
4d- 4G 4E\	.	.
=95	=95	=95
4AA-/	4ccc- 4cc-\	.
4c- 4A- 4E-\	4ccc- 4cc-\	.
4c- 4A- 4E-\	4eee-- 4ee--\	.
=96	=96	=96
4C- 4CC-/	4.fff 4.ddd- 4.ff\	.
4c- 4A- 4E-\	.	.
!	!LO:TX:t=P:problem:skreślone nuty w tt. nr 96-97	!
.	8eee- 8ccc- 8ee-\	.
4c- 4A- 4E-\	4eee- 4ccc- 4ee-\	.
=97	=97	=97
4AA- 4AAA-/	4eee- 4ccc- 4ee-\	.
4c- 4A- 4E-/	4bbb- 4ddd- 4bb-\	.
4c- 4A- 4E-/	4aaa- 4ccc- 4aa-\	.
=98	=98	=98
!	!LO:N:vis=4	!
4D- 4DD-/	4.eee- 4.ccc- 4.ee-\	.
4d- 4B- 4G- 4D-/	.	.
.	8ddd- 8bb- 8dd-\	.
4d- 4B- 4G- 4D-/	4ddd- 4bb- 4dd-\	.
=99	=99	=99
4DD-/	4ddd- 4bb- 4dd-\	.
4d- 4B- 4G- 4D-/	4aaa- 4ccc- 4aa-\	.
4d- 4B- 4G- 4D-/	4ggg- 4bb- 4gg-\	.
=100	=100	=100
4DD-/	4eee- 4aa- 4ee-\	.
*	*8va	*
4c- 4A- 4F 4D-\	4eeee- 4eee-\	.
4c- 4A- 4E- 4C-\	4dddd- 4ddd-\	.
=101	=101	=101
4DD-/	8dddd-L 8ddd-\	.
.	8cccc-J 8ccc-\	.
!	!LO:SIC:v:n=2:s=4bb-	!
4c- 4A- 4F 4D-\	4bbb- 4aa-\	.
4c- 4A- 4F\	4aaa- 4aa-\	.
=102	=102	=102
4G- 4GG-/	4ggg- 4ddd- 4bb- 4gg-\	.
4D- 4DD-/	8ggg-L 8ddd- 8bb- 8gg-\	.
.	8ggg-J 8ddd- 8bb- 8gg-\	.
4GG- 4GGG-/	4ggg- 4ddd- 4bb- 4gg-\	.
=103	=103	=103
2GG- 2GGG-/	2ggg- 2ddd- 2bb-\	.
*	*X8va	*
4ryy	4ryy	.
!!LO:LB:g=original
=104	=104	=104
4D- 4DD-/	4.fff 4.ff\	.
4f 4d- 4A-\	.	.
.	8eee- 8ee-\	.
4f-X 4d- 4B--\	8ddd-L 8dd-\	.
.	8bb--J 8b--\	.
=105	=105	=105
4D-\	4aa- 4a-\	.
4d- 4A- 4F\	8ddd-L 8dd-\	.
.	8fffJ 8ff\	.
4B-: 4En: 4D-: 4FFn:\	4bbb- 4bb-\	.
=106	=106	=106
4AA- 4AAA-/	8aaa-L 8aa-\	.
.	8ggg-J 8gg-\	.
4g- 4e- 4c- 4A-\	4bb- 4b-\	.
*	*8va	*
4g- 4e- 4c- 4A-\	4cccc- 4ccc-\	.
=107	=107	=107
4D- 4DD-/	4dddd- 4ddd-\	.
4f 4d- 4A-\	8fffL 8ff\	.
.	8bbb- 8bb-\	.
4f 4d- 4A-\	8aaa- 8aa-\	.
.	8ddd-J 8dd-\	.
=108	=108	=108
!	!LO:N:vis=8.L	!
4D- 4DD-/	4fff 4ffL/	.
4f 4d- 4A-\	8eee- 8ee-J/	.
.	8eee-L 8ee-/	.
4f-X 4d- 4B--\	8ddd- 8dd-/	.
.	8bb--J 8b--/	.
=109	=109	=109
4D-\	4aa- 4a-/	.
4d- 4A- 4F\	8ddd-L 8dd-/	.
.	8fffJ 8ff/	.
4B-: 4En: 4D-: 4FFn:\	4bbb- 4bb-/	.
=110	=110	=110
4r	4ccc- 4cc-/	.
4r	8eee-L 8ee-/	.
.	8ggg-J 8gg-/	.
4c-: 4F#X: 4E-: 4AAn:\	4cccc- 4ccc-/	.
*	*X8va	*
!!LO:PB:g=original
=111	=111	=111
4r	4dd- 4d-/	.
4r	8ffL 8f/	.
.	8bb-J 8b-/	.
4d-: 4F: 4BB-^^<:\	4ddd- 4dd-^^\	.
=112	=112	=112
4r	4ddn 4dn/	.
4r	8ffL 8f/	.
.	8aa-J 8a-/	.
4dn: 4A-: 4F: 4BBn^^<:\	4ddd- 4dd^^\	.
=113	=113	=113
4r	4ee- 4e-/	.
4r	8gg-L 8g-/	.
.	8aa-J 8a-/	.
4e-: 4A-: 4G-: 4C-^^<:\	4eee- 4ee-^^\	.
=114	=114	=114
4r	4ee- 4e-/	.
4r	8gg-L 8g-\	.
.	8bb--J 8b--\	.
*clefG2	*	*
4b-- 4g- 4e- 4c-X^^</	4eee- 4ee-^^\	.
=115	=115	=115
4r	4ee- 4e-/	.
4r	8gg-L 8g-/	.
!	!LO:N:acc=n-	!
.	8bb-J 8b-/	.
!LO:N:n=1:acc=n-	!	!
!LO:N:n=4:acc=n-	!	!
4b-X 4g- 4e- 4B-X^^</	4eee- 4ee-^^\	.
=116	=116	=116
4r	4ee- 4e-/	.
4r	8gg-L 8g-/	.
.	8ccc-XJ 8cc-X/	.
4cc-X 4g- 4e- 4B--^^</	4eee- 4ee-^^\	.
=117	=117	=117
4r	4ee- 4e-/	.
4r	8gg-L 8g-/	.
.	8aa-J 8a-/	.
4ccn: 4g-: 4e-: 4A-:/	4eee- 4ee-^^/	.
!!LO:LB:g=original
=118	=118	=118
*	*8va	*
8ffL 8dd- 8a- 8f/	8ffffL 8fff\	.
8ee-J 8e-/	8eeee-J 8eee-\	.
4dd- 4d-/	4dddd- 4ddd-\	.
4b-- 4B--/	4bbb-- 4bb--\	.
*clefF4	*	*
=119	=119	=119
4a- 4f 4d- 4A-\	4aaa- 4fff 4ddd- 4aa-/	.
8fL 8F\	8fffL 8ff/	.
8d-J 8D-\	8ddd-J 8dd-/	.
4A- 4AA-/	4aa- 4a-/	.
*	*X8va	*
=120	=120	=120
!	!LO:TX:a:t=loco	!
8fL 8d- 8A- 8F\	8fffL 8ddd- 8aa- 8ff\	.
8e-J 8E-\	8eee-J 8ccc- 8ee-\	.
4d- 4D-\	4ddd- 4dd-\	.
4B-- 4BB--\	4bb-- 4b--\	.
=121	=121	=121
4A- 4F 4D- 4AA-/	4aa- 4ff 4dd- 4a-\	.
8FL 8FF/	8ffL 8f/	.
8D-J 8DD-/	8dd-J 8d-/	.
4AA- 4AAA-/	4a- 4A-/	.
=122	=122	=122
4GG- 4GGG-/	4b-- 4g- 4d- 4B--/	.
8B--L 8BB--\	8bb--L 8b--X\	.
8A- 8AA-\	8aa- 8a-\	.
8G- 8GG-\	8gg- 8g-\	.
8B--J 8BB--\	8bb--J 8b--\	.
=123	=123	=123
*	*^	*^
4d- 4D-\	4ddd- 4dd-\	4ryy	.	.
4r	4r	4ryy	.	.
!	!	!	!LO:DY:rj	!LO:DY:rj:b=2
4GG- 4GGG-/	8ddd-/L	4bb- 4gg- 4dd-\	ff	ff
.	8eee-/J	.	.	.
*	*	*	*v	*v
=124	=124	=124	=124
*tremolo	*8va	*	*
16DDD-/LL	4ffff 4dddd-/	4aaa- 4fff\	.
16DD-/	.	.	.
16DDD-/	.	.	.
16DD-/	.	.	.
*	*Xtuplet	*	*
*	*rscale:2	*	*
16DDD-/	80eeee-\LLLL	4ryy	.
.	80dddd-\	.	.
.	80aaa-\JJJJ	.	.
!!LO:LB:g=original
*	*X8va	*	*
!	!LO:TX:a:t=loco	!	!
.	80fff\LLLL	.	.
.	80eee-\	.	.
16DD-/	80ddd-\	.	.
.	80aa-\	.	.
.	80ff\	.	.
.	80ee-\	.	.
.	80dd-\	.	.
16DDD-/	80a-\	.	.
.	80f\	.	.
.	80e-\	.	.
.	80d-\JJJJ	.	.
.	80A-</LLLL	.	.
16DD-/JJ	80F</	.	.
*Xtremolo	*	*	*
.	80E-</	.	.
.	80D-</	.	.
.	80AA-</	.	.
.	80FF</JJJJ	.	.
!	!	!	!LO:DY:rj:b=2
4DD- 4DDD-^^</	4ryy	4ryy	fff
*	*v	*v	*
==	==	==
*-	*-	*-
!!!system-decoration: {s1,s2}
!!!RDF**kern: > = above
!!!RDF**kern: < = below
!!!RDF**dynam: pp = "pp."
!!!ENC: Andrzej Kubiczek
!!!END: 2021-06-09
!!!ENC: Berenika Jozajtis
!!!END: 2021-05-28
